dist/static/edit-circle-svgrepo-com.svg

<!DOCTYPE svg PUBLIC "-//W3C//DTD SVG 1.1//EN" "http://www.w3.org/Graphics/SVG/1.1/DTD/svg11.dtd">
<!-- Uploaded to: SVG Repo, www.svgrepo.com, Transformed by: SVG Repo Mixer Tools -->
<svg fill="#fff" width="800px" height="800px" viewBox="0 0 24 24" xmlns="http://www.w3.org/2000/svg" stroke="#fff">
<g id="SVGRepo_bgCarrier" stroke-width="0"/>
<g id="SVGRepo_tracerCarrier" stroke-linecap="round" stroke-linejoin="round"/>
<g id="SVGRepo_iconCarrier"> <path d="M12.5,10.2071068 L8,14.7071068 L8,16 L9.29289322,16 L13.7928932,11.5 L12.5,10.2071068 Z M13.2071068,9.5 L14.5,10.7928932 L15.7928932,9.5 L14.5,8.20710678 L13.2071068,9.5 Z M12,22 C6.4771525,22 2,17.5228475 2,12 C2,6.4771525 6.4771525,2 12,2 C17.5228475,2 22,6.4771525 22,12 C22,17.5228475 17.5228475,22 12,22 Z M12,21 C16.9705627,21 21,16.9705627 21,12 C21,7.02943725 16.9705627,3 12,3 C7.02943725,3 3,7.02943725 3,12 C3,16.9705627 7.02943725,21 12,21 Z M14.8535534,7.14644661 L16.8535534,9.14644661 C17.0488155,9.34170876 17.0488155,9.65829124 16.8535534,9.85355339 L9.85355339,16.8535534 C9.7597852,16.9473216 9.63260824,17 9.5,17 L7.5,17 C7.22385763,17 7,16.7761424 7,16.5 L7,14.5 C7,14.3673918 7.05267842,14.2402148 7.14644661,14.1464466 L14.1464466,7.14644661 C14.3417088,6.95118446 14.6582912,6.95118446 14.8535534,7.14644661 Z"/> </g>
</svg>

<svg xmlns="http://www.w3.org/2000/svg" width="800" height="800" fill="#fff" stroke="#fff" viewBox="0 0 24 24"><path d="m12.5 10.207-4.5 4.5V16h1.293l4.5-4.5-1.293-1.293Zm.707-.707 1.293 1.293L15.793 9.5 14.5 8.207 13.207 9.5ZM12 22C6.477 22 2 17.523 2 12S6.477 2 12 2s10 4.477 10 10-4.477 10-10 10Zm0-1a9 9 0 1 0 0-18 9 9 0 0 0 0 18Zm2.854-13.854 2 2a.5.5 0 0 1 0 .708l-7 7A.5.5 0 0 1 9.5 17h-2a.5.5 0 0 1-.5-.5v-2a.5.5 0 0 1 .146-.354l7-7a.5.5 0 0 1 .708 0Z"/></svg>
